X: 32407
T: Piper's Despair, The
R: reel
M: 4/4
K: Edorian
EFGA BAFA|BdAd dBAD|D2FD ADFA|BdAd dBAF|
EFGA BAFA|BdAd dBAD|DEFA dfag|gfed Bcde||
e2ge begf|efga bfaf|de~f2 af~f2|df~f2 fedf|
e2ge begf|efga bfaf|~d3e fggf|gfed Bcde||

